assets/icons/24px/stroke/folder-24px.svg

<svg width="24" height="24" viewBox="0 0 24 24" fill="none" xmlns="http://www.w3.org/2000/svg">
<path fill-rule="evenodd" clip-rule="evenodd" d="M11.4472 4.10554C11.2857 4.02477 11.0818 3.99997 10 3.99997H7C6.02893 3.99997 5.40122 4.0021 4.93871 4.06428C4.50497 4.12259 4.36902 4.21674 4.2929 4.29286C4.21677 4.36899 4.12263 4.50494 4.06431 4.93868C4.02666 5.2187 4.01103 5.55929 4.00455 5.99997H13L12.4 5.19997C11.7509 4.33452 11.6088 4.18631 11.4472 4.10554ZM15.5 5.99997L14 3.99997C13.9662 3.95494 13.9328 3.91018 13.8996 3.86576C13.4133 3.21496 12.981 2.63639 12.3416 2.31669C11.7022 1.99699 10.98 1.9983 10.1676 1.99977C10.1122 1.99987 10.0563 1.99997 10 1.99997H7C6.97799 1.99997 6.95604 1.99997 6.93417 1.99997C6.04769 1.99992 5.28387 1.99988 4.67221 2.08211C4.0167 2.17024 3.38835 2.36899 2.87868 2.87865C2.36902 3.38831 2.17028 4.01666 2.08215 4.67218C1.99991 5.28384 1.99995 6.04765 2 6.93414C2 6.95601 2 6.97795 2 6.99997L2 17.0658C1.99995 17.9523 1.99991 18.7161 2.08215 19.3278C2.17028 19.9833 2.36902 20.6116 2.87868 21.1213C3.38835 21.631 4.0167 21.8297 4.67221 21.9178C5.28388 22.0001 6.0477 22 6.9342 22H17.0658C17.9523 22 18.7161 22.0001 19.3278 21.9178C19.9833 21.8297 20.6117 21.631 21.1213 21.1213C21.631 20.6116 21.8297 19.9833 21.9179 19.3278C22.0001 18.7161 22.0001 17.9523 22 17.0658V10.9342C22.0001 10.0477 22.0001 9.28385 21.9179 8.67218C21.8297 8.01666 21.631 7.38831 21.1213 6.87865C20.6117 6.36899 19.9833 6.17024 19.3278 6.08211C18.7161 5.99988 17.9523 5.99992 17.0658 5.99997L15.5 5.99997ZM4 7.99997V17C4 17.9711 4.00213 18.5988 4.06431 19.0613C4.12263 19.495 4.21677 19.631 4.2929 19.7071C4.36902 19.7832 4.50497 19.8773 4.93871 19.9357C5.40121 19.9978 6.02893 20 7 20H17C17.9711 20 18.5988 19.9978 19.0613 19.9357C19.495 19.8773 19.631 19.7832 19.7071 19.7071C19.7832 19.631 19.8774 19.495 19.9357 19.0613C19.9979 18.5988 20 17.9711 20 17V11C20 10.0289 19.9979 9.40118 19.9357 8.93868C19.8774 8.50494 19.7832 8.36899 19.7071 8.29287C19.631 8.21674 19.495 8.12259 19.0613 8.06428C18.5988 8.0021 17.9711 7.99997 17 7.99997H4Z" fill="white"/>
</svg>

<svg width="24" height="24" fill="none" xmlns="http://www.w3.org/2000/svg"><path fill-rule="evenodd" clip-rule="evenodd" d="M11.447 4.106C11.286 4.025 11.082 4 10 4H7c-.971 0-1.599.002-2.061.064-.434.059-.57.153-.646.229-.076.076-.17.212-.229.646A9.27 9.27 0 0 0 4.004 6H13l-.6-.8c-.65-.865-.791-1.014-.953-1.094zM15.5 6L14 4l-.1-.134c-.487-.651-.919-1.23-1.558-1.55-.64-.319-1.362-.318-2.174-.316H6.934c-.886 0-1.65 0-2.262.082-.655.088-1.284.287-1.793.797-.51.51-.709 1.138-.797 1.793C2 5.284 2 6.048 2 6.934V17.066c0 .886 0 1.65.082 2.262.088.655.287 1.284.797 1.793.51.51 1.138.709 1.793.797C5.284 22 6.048 22 6.934 22h10.132c.886 0 1.65 0 2.262-.082.655-.088 1.284-.287 1.793-.797.51-.51.709-1.138.797-1.793.082-.612.082-1.376.082-2.262v-6.132c0-.886 0-1.65-.082-2.262-.088-.655-.287-1.284-.797-1.793-.51-.51-1.138-.709-1.793-.797C18.716 6 17.952 6 17.066 6H15.5zM4 8v9c0 .971.002 1.599.064 2.061.059.434.153.57.229.646.076.076.212.17.646.229C5.4 19.998 6.029 20 7 20h10c.971 0 1.599-.002 2.061-.064.434-.059.57-.153.646-.229.076-.076.17-.212.229-.646.062-.462.064-1.09.064-2.061v-6c0-.971-.002-1.599-.064-2.061-.059-.434-.153-.57-.229-.646-.076-.076-.212-.17-.646-.229C18.6 8.002 17.971 8 17 8H4z" fill="#fff"/></svg>
